wp-content/plugins/google-analytics-for-wordpress/lite/assets/vue/img/icon-guide.svg

<svg width="16" height="19" viewBox="0 0 16 19" fill="none" xmlns="http://www.w3.org/2000/svg">
	<path
		d="M15.875 12.9062V1.09375C15.875 0.636719 15.4883 0.25 15.0312 0.25H3.5C1.63672 0.25 0.125 1.76172 0.125 3.625V14.875C0.125 16.7383 1.63672 18.25 3.5 18.25H15.0312C15.4883 18.25 15.875 17.8984 15.875 17.4062V16.8438C15.875 16.5977 15.7344 16.3516 15.5586 16.2109C15.3828 15.6484 15.3828 14.1016 15.5586 13.5742C15.7344 13.4336 15.875 13.1875 15.875 12.9062ZM4.625 4.96094C4.625 4.85547 4.69531 4.75 4.83594 4.75H12.2891C12.3945 4.75 12.5 4.85547 12.5 4.96094V5.66406C12.5 5.80469 12.3945 5.875 12.2891 5.875H4.83594C4.69531 5.875 4.625 5.80469 4.625 5.66406V4.96094ZM4.625 7.21094C4.625 7.10547 4.69531 7 4.83594 7H12.2891C12.3945 7 12.5 7.10547 12.5 7.21094V7.91406C12.5 8.05469 12.3945 8.125 12.2891 8.125H4.83594C4.69531 8.125 4.625 8.05469 4.625 7.91406V7.21094ZM13.5195 16H3.5C2.86719 16 2.375 15.5078 2.375 14.875C2.375 14.2773 2.86719 13.75 3.5 13.75H13.5195C13.4492 14.3828 13.4492 15.4023 13.5195 16Z"
		fill="#338EEF"/>
</svg>

<svg width="16" height="19" fill="none" xmlns="http://www.w3.org/2000/svg"><path d="M15.875 12.906V1.094a.855.855 0 00-.844-.844H3.5A3.376 3.376 0 00.125 3.625v11.25A3.376 3.376 0 003.5 18.25h11.531a.833.833 0 00.844-.844v-.562a.855.855 0 00-.316-.633c-.176-.563-.176-2.11 0-2.637a.87.87 0 00.316-.668zM4.625 4.961c0-.106.07-.211.21-.211h7.454c.106 0 .211.105.211.21v.704c0 .14-.105.211-.21.211H4.835c-.14 0-.211-.07-.211-.21V4.96zm0 2.25c0-.106.07-.211.21-.211h7.454c.106 0 .211.105.211.21v.704c0 .14-.105.211-.21.211H4.835c-.14 0-.211-.07-.211-.21V7.21zM13.52 16H3.5a1.11 1.11 0 01-1.125-1.125c0-.598.492-1.125 1.125-1.125h10.02c-.07.633-.07 1.652 0 2.25z" fill="#338EEF"/></svg>
